X:185
T:Gigue Andr\'e Alain
S:Laurence Beaudry
Z:robin.beech@mcgill.ca
M:6/8
L:1/8
K:D
DFA DFA | dcB B2A | DFA DFA | GFG E2E |
DFA DFA | dcB B2A | Ace Ace |gfe d3 ::
fef def | gfg efg | afd edc | B2A A2e |
fef def | gfg efg | afd edc |1 ABc d2e :|2 ABc d3 |]

